!!!!SEGMENT: pl-sa--67-a-ii-7--001_haydn-joseph--cassatio-in-es-allegro.krn
!!!cenid: 17xx:570
!!!COM: Haydn, Joseph
!!!COM-rismid: pe55803
!!!CDT: 1732/03/31-1809/05/31
!!!CNT: Austrian
!!!OPR: Cassatio in Es
!!!OTL: Allegro
!!!OMV: 001
!!!PDT:
!!!AGN: Secular; Cassation
!!!SMS-siglum: PL-SA
!!!SMS-shelfmark: 67/A II 7
!!!SMS-shelfwork: 001-001 M
!!!SMS-variant:
!!!SMS-altvar:
!!!NIFC-rismid: 1001076830
!!!URL-scan: http://bc.bdsandomierz.pl/dlibra/publication/1338/edition/1306/content
!!!ONB-nifc: UWAGA: części Cassatio: Allegro, Adagio, Menuet, Presto
!!!key:
**kern	**dynam	**kern	**dynam	**kern	**dynam	**kern
*part4	*part4	*part3	*part3	*part2	*part2	*part1
*staff4	*	*staff3	*	*staff2	*	*staff1
*Iempty	*	*Iviola	*	*Ivioln	*	*Ivioln
*I"Baſso:	*	*I"Viola Obligata	*	*I"Violino 2do.	*	*I"Violino Prymo
*I'basso	*	*I'vla	*	*I'vl II	*	*I'vl I
*clefF4	*	*clefC3	*	*clefG2	*	*clefG2
*k[b-e-a-]	*	*k[b-e-a-]	*	*k[b-e-a-]	*	*k[a-e-b-]
*E-:	*	*E-:	*	*E-:	*	*E-:
*M3/8	*	*M3/8	*	*M3/8	*	*M3/8
=1	=1	=1	=1	=1	=1	=1
*all\right	*	*all\right	*	*	*	*all\right
*	*	*	*	*	*	*^
!LO:TX:a:t=P:problem:bemole BB- E- A-	!	!LO:TX:a:t=P:problem:bemole B- e- a- jeden nad drugim	!	!LO:TX:a:t=P:problem:bemole e- a- ee- jeden nad drugim, potem b-	!	!	!
!LO:TX:a:t=Allegro	!	!LO:TX:a:t=Allegro	!	!LO:TX:a:t=Allo.	!	!	!
4E-\	.	4e-\	.	4g/	.	4ee-/	4e-/
8r	.	8r	.	(16ee-\LL	.	(16gg\LL	8ryy
.	.	.	.	16dd\JJ)	.	16ff\JJ)	.
*	*	*	*	*	*	*v	*v
=2	=2	=2	=2	=2	=2	=2
8B-\	.	8b-\	.	8dd\	.	8ff\
8r	.	8r	.	8r	.	8r
8r	.	8r	.	8r	.	8r
=3	=3	=3	=3	=3	=3	=3
*	*	*	*	*	*	*^
!LO:N:vis=4	!	!	!	!	!	!	!
8BB-/	.	4B-/	.	4dd\	.	4ff/	4b-/
8r	.	.	.	.	.	.	.
8r	.	8r	.	(16ff\LL	.	(16aa-\LL	8ryy
.	.	.	.	16ee-\JJ)	.	16gg\JJ)	.
*	*	*	*	*	*	*v	*v
=4	=4	=4	=4	=4	=4	=4
8E-\L	.	8e-\	.	8ee-\	.	8gg\
8G\	.	8r	.	8r	.	8r
8B-\J	.	8r	.	8r	.	8r
=5	=5	=5	=5	=5	=5	=5
8E-\L	.	8e-\L	.	4.gg\	.	4.bb-\
8G\	.	8g\	.	.	.	.
8B-\J	.	8b-\J	.	.	.	.
=6	=6	=6	=6	=6	=6	=6
8e-\	.	8ee-\	.	16gg\LL	.	16bb-\LL
.	.	.	.	16aa-\	.	(16ccc\
8r	.	8r	.	(16gg\	.	16bb-\
.	.	.	.	16ff\	.	16aa-\
8r	.	8r	.	16ee-\	.	16gg\)
!	!	!	!	!	!	!LO:TX:a:t=vi
.	.	.	.	16dd\JJ)	.	16ff\JJ
=7	=7	=7	=7	=7	=7	=7
!	!	!LO:TX:a:t=1	!	!	!	!LO:TX:a:t=de
4.r	.	4.r	.	8ee-\	.	(16ee-\LL
.	.	.	.	.	.	16dd\
.	.	.	.	8r	.	(16ff\)
.	.	.	.	.	.	16ee-\)
.	.	.	.	8r	.	16gg\
!	!	!	!	!	!	!LO:TX:a:t=re
.	.	.	.	.	.	16ee-\JJ
=8	=8	=8	=8	=8	=8	=8
!	!	!	!	!	!	!LO:TX:b:t=tro
8BB-/L	.	8B-/L	.	4gsSsS</	.	4b-/
8BB-/	.	8B-/	.	.	.	.
8BB-/J	.	8B-/J	.	8f/	.	8a-/
=9	=9	=9	=9	=9	=9	=9
8E-\L	.	8e-\	.	8e-/	.	8g/
8G\	.	8r	.	8r	.	8r
8B-\J	.	8r	.	8r	.	8r
=10	=10	=10	=10	=10	=10	=10
!	!	!	!	!	!LO:DY:a:t=pia	!
4E-\	.	4e-\	.	4G/	p	4.r
!LO:TX:a:t=vi	!	!	!	!	!	!
8r	.	(16g\LL	.	16e-/LL	.	.
.	.	16f\JJ)	.	16d/JJ	.	.
=11	=11	=11	=11	=11	=11	=11
!LO:TX:a:t=de	!	!	!	!	!	!
4B-\	.	8f\	.	8d/	.	8r
.	.	8r	.	8r	.	8b-\L
8r	.	8r	.	8r	.	8b-\J
=12	=12	=12	=12	=12	=12	=12
4BB-/	.	4f\	.	4d/	.	4.b-\
!LO:TX:a:t=re	!	!	!	!	!	!
8r	.	(16a-\LL	.	16f/LL	.	.
.	.	16g\JJ)	.	16e-/JJ	.	.
!	!	!LO:LB:g=original	!	!	!	!
=13	=13	=13	=13	=13	=13	=13
!LO:TX:a:t=tro	!	!	!	!	!	!
8E-\	.	8g\	.	8e-/	.	8b-\L
8r	.	8r	.	8r	.	8b-\
8r	.	8r	.	8r	.	8b-\J
!	!	!	!	!LO:LB:g=original	!	!LO:LB:g=original
=14	=14	=14	=14	=14	=14	=14
(8E-\L	.	8e-\	.	(8g/L	.	4.b-\
8D\)	.	8r	.	8f/	.	.
8F\J|	.	8r	.	8a-/J)|	.	.
=15	=15	=15	=15	=15	=15	=15
8E-\	.	8e-\	.	4g/	.	(16b-\LL
.	.	.	.	.	.	16ee-\
8r	.	8r	.	.	.	16dd\)
.	.	.	.	.	.	16cc\J
!	!	!	!	!	!	!LO:N:vis=16
8r	.	8r	.	8r	.	8b-\J|
!LO:LB:g=original	!	!	!	!	!	!
=16	=16	=16	=16	=16	=16	=16
(8E-\L	.	(8e-\L	.	(8g/L	.	4.b-\
8D\)	.	8d\)	.	8f/)	.	.
8F\J|	.	8d\J|	.	8a-/J|	.	.
=17	=17	=17	=17	=17	=17	=17
8E-\	.	8e-\	.	4g/	.	(16b-\LL
.	.	.	.	.	.	16ee-\
8r	.	8r	.	.	.	16dd\)
.	.	.	.	.	.	16cc\J
!	!	!	!	!	!	!LO:N:vis=16
8r	.	8r	.	8r	.	8b-\J|
=18	=18	=18	=18	=18	=18	=18
!LO:TX:a:t=2	!	!LO:TX:a:t=2.	!	!LO:TX:a:t=a	!	!
!LO:N:vis=0	!	!LO:N:vis=0	!	!	!	!
2.r	.	2.r	.	4a-/	.	(16b-\LL
.	.	.	.	.	.	16dd\
.	.	.	.	.	.	16ee-\
.	.	.	.	.	.	16cc\J)
!	!	!	!	!	!	!LO:N:vis=16
.	.	.	.	8g/	.	8b-\J|
=19	=19	=19	=19	=19	=19	=19
.	.	.	.	8qqg/	.	.
.	.	.	.	4f/	.	(16a-\LL
.	.	.	.	.	.	16b-\
.	.	.	.	.	.	16cc\
.	.	.	.	.	.	16a-\J)
!	!	!	!	!	!	!LO:N:vis=16
.	.	.	.	8e-/	.	8g\J|
=20	=20	=20	=20	=20	=20	=20
(4AA-/	.	4A-/	.	4d/	.	16f/LL
.	.	.	.	.	.	16g/
.	.	.	.	.	.	16a-/
.	.	.	.	.	.	16g/
8AAn/)	.	8A#X/	.	8c/	.	16f/
.	.	.	.	.	.	16e-/JJ
=21	=21	=21	=21	=21	=21	=21
!LO:TX:a:t=P:problem:mixed beam	!	!LO:TX:a:t=P:problem:mixed beam	!	!	!	!
8BB-/L	.	8B-/L	.	4B-/	.	8b-\
16B-\L	.	16b-\L	.	.	.	8r
16An\	.	16an\	.	.	.	.
16B-\	.	16b-\	.	8r	.	8r
16A\JJ	.	16a\JJ	.	.	.	.
=22	=22	=22	=22	=22	=22	=22
!	!	!	!	!	!LO:DY:a:t=for	!
4B-\	.	4b-\	.	8r	f	8r
.	.	.	.	8dd\L	.	8ff\L
8r	.	8r	.	8dd\J	.	8ff#X\J
=23	=23	=23	=23	=23	=23	=23
!LO:TX:a:t=P:problem:mixed beam	!	!LO:TX:a:t=P:problem:mixed beam	!	!	!	!
8BB-/L	.	8B-/L	.	[4.ee-\	.	4.gg\
16B-\L	.	16b-\L	.	.	.	.
16An\	.	16an\	.	.	.	.
16B-\	.	16b-\	.	.	.	.
16A\JJ	.	16a\JJ	.	.	.	.
=24	=24	=24	=24	=24	=24	=24
4B-\	.	4b-\	.	8ee-\L]	.	8gg\L
.	.	.	.	8gg\	.	8bb-\
8r	.	8r	.	8ee-\J	.	8gg\J
!	!	!LO:LB:g=original	!	!	!	!LO:LB:g=original
=25	=25	=25	=25	=25	=25	=25
!LO:TX:a:t=P:problem:mixed beam	!	!LO:TX:a:t=P:problem:mixed beam	!	!	!	!
8BB-/L	.	8B-/L	.	[4.dd\	.	4.ff\
16B-\L	.	16b-\L	.	.	.	.
16A-\	.	16a-\	.	.	.	.
16B-\	.	16b-\	.	.	.	.
16A-\JJ	.	16a-\JJ	.	.	.	.
=26	=26	=26	=26	=26	=26	=26
4B-\	.	8b-\	.	8dd\]	.	(16ff\LL
.	.	.	.	.	.	16ddd\
.	.	8r	.	8r	.	16bb-\)
.	.	.	.	.	.	16gg\J
8r	.	8r	.	8r	.	8ff\J|
=27	=27	=27	=27	=27	=27	=27
4.B-\	.	4.g\	.	[4.cc\	.	(16ee-\LL
.	.	.	.	.	.	16dd\)
.	.	.	.	.	.	(16ee-\
.	.	.	.	.	.	16dd\J)
.	.	.	.	.	.	8ee-\J
=28	=28	=28	=28	=28	=28	=28
4.An\	.	4.f\	.	4.cc\]	.	(16ccc\LL
.	.	.	.	.	.	16aan\)
.	.	.	.	.	.	(16eee-\
.	.	.	.	.	.	16ccc\)
.	.	.	.	.	.	(16aa\
.	.	.	.	.	.	16ee-\JJ)
!LO:LB:g=original	!	!	!	!	!	!
=29	=29	=29	=29	=29	=29	=29
8B-\	.	8f\	.	8b-\	.	8dd\L
8r	.	8r	.	8r	.	(16bb-\L
.	.	.	.	.	.	16aan\)
8r	.	8r	.	8r	.	(16bb-\
.	.	.	.	.	.	16aa\JJ)
=30	=30	=30	=30	=30	=30	=30
!	!	!	!	!	!	!LO:TX:a:t=P:problem:mixed beam
8r	.	8r	.	8r	.	8bb-\L
8D\L|	.	8d\L	.	8d/L|	.	8d/
8B-\J|	.	8b-\J	.	8f/J|	.	8b-/J
!	!	!	!	!LO:LB:g=original	!	!
=31	=31	=31	=31	=31	=31	=31
!	!	!	!	!	!	!LO:TX:a:t=P:problem:mixed beam
8E-\	.	8e-\	.	8e-/	.	8d/L
8r	.	8r	.	8r	.	16gg\L
.	.	.	.	.	.	16ff#X\
8r	.	8r	.	8r	.	16gg\
.	.	.	.	.	.	16ff#\JJ
=32	=32	=32	=32	=32	=32	=32
!	!	!	!	!	!	!LO:TX:a:t=P:problem:mixed beam
8r	.	8r	.	8r	.	8gg\L
8E-/L	.	(8e-\L	.	8e-/L	.	8e-/
8C/J	.	8c\J)	.	8c/J	.	8c/J
=33	=33	=33	=33	=33	=33	=33
!	!	!LO:N:vis=4	!	!	!	!
8AAn/	.	8An/	.	8An/	.	8An/L
8r	.	8r	.	8r	.	16f/L
.	.	.	.	.	.	16an/
8A-\	.	8f\	.	8r	.	16cc/
.	.	.	.	.	.	16ee-/JJ
!	!	!	!	!	!	!LO:LB:g=original
=34	=34	=34	=34	=34	=34	=34
*	*	*	*	*	*	*Xtuplet
!	!	!	!	!LO:TX:a:t=P:problem:mixed beam	!	!LO:TUP:a:problem:klamra łukowa
8B-\L	.	8f\L	.	8b-\L	.	24dd\LL
.	.	.	.	.	.	24cc\
.	.	.	.	.	.	24b-\JJ
8E-\	.	8g\	.	8B-/	.	4ccT\
8F\J	.	8f\J	.	8An/J	.	.
=35	=35	=35	=35	=35	=35	=35
.	.	.	.	.	.	8qqcc/
4BB-/	.	8f\	.	8B-/	.	4b-\
.	.	8r	.	8r	.	.
8B-\	.	8r	.	(16d/LL	.	8r
.	.	.	.	16f/JJ)	.	.
=36	=36	=36	=36	=36	=36	=36
8c\L	.	8r	.	(16e-/LL	.	8r
.	.	.	.	16f/)	.	.
8An\	.	8r	.	(16e-/	.	8r
.	.	.	.	16f/)	.	.
8F\J	.	8cc\	.	(16e-/	.	8aan\
.	.	.	.	16f/JJ)	.	.
!	!	!LO:LB:g=original	!	!	!	!
=37	=37	=37	=37	=37	=37	=37
!LO:TX:a:t=P:problem:mixed beam	!	!	!	!	!	!
8B-\L	.	(8dd\L	.	(16d/LL	.	(8bb-\L
.	.	.	.	16f/)	.	.
8BB-/	.	8b-\J)	.	(16d/	.	8ff\J)
.	.	.	.	16f/)	.	.
8B-\J	.	8r	.	(16d/	.	8r
.	.	.	.	16f/JJ)	.	.
=38	=38	=38	=38	=38	=38	=38
8c\L	.	8r	.	(16e-/LL	.	8r
.	.	.	.	16f/)	.	.
8An\	.	8r	.	(16e-/	.	8r
.	.	.	.	16f/)	.	.
8F\J	.	8cc\	.	(16e-/	.	8aa#X\
.	.	.	.	16f/JJ)	.	.
=39	=39	=39	=39	=39	=39	=39
4B-\	.	8dd\	.	4d/	.	8bb-\L
.	.	8r	.	.	.	(16b-\L
.	.	.	.	.	.	16an\)
8r	.	8r	.	8r	.	(16cc\
.	.	.	.	.	.	16b-\JJ)
=40	=40	=40	=40	=40	=40	=40
!	!	!LO:TX:a:t=1	!	!	!	!
4.r	.	4.r	.	(16b-\LL	.	(16dd\LL
.	.	.	.	16an\	.	16cc\)
.	.	.	.	16cc\)	.	(16ee-\
.	.	.	.	16b-\|	.	16dd\)
.	.	.	.	(16dd\	.	(16gg\
.	.	.	.	16cc\JJ)	.	16ff\JJ)
!LO:LB:g=original	!	!	!	!	!	!
=41	=41	=41	=41	=41	=41	=41
!LO:TX:a:t=P:problem:mixed beam	!	!LO:TX:a:t=P:problem:mixed beam	!	!	!	!
8BB-/L	.	8B-/L	.	4dd\	.	4ff\
8B-\J	.	8b-\J	.	.	.	.
8r	.	8r	.	(16ee-\LL	.	16gg\LL
.	.	.	.	16dd\JJ)	.	16ff\JJ
=42	=42	=42	=42	=42	=42	=42
!LO:TX:a:t=P:problem:mixed beam	!	!LO:TX:a:t=P:problem:mixed beam	!	!	!	!
8E-\L	.	8e-\L	.	8cc\L	.	8ee-\L
8F\	.	8f\	.	8b-\	.	8dd\
!	!	!	!	!LO:TX:a:t=P:problem:kasownik za nutą na wysokości b	!	!
8FF/J	.	8F/J	.	8an\J	.	8cc\J
!	!	!	!	!LO:LB:g=original	!	!
=43	=43	=43	=43	=43	=43	=43
.	.	.	.	.	.	8qqcc/
!	!	!	!	!	!LO:DY:a:rj:t=pia.	!
4BB-/	.	8B-/	.	4b-\	p	4b-\
.	.	8r	.	.	.	.
!	!	!	!LO:DY:t=p&colon;	!	!	!
8r	.	(16ee-\LL	p	(16gg\LL	.	8r
.	.	16dd\JJ)	.	16ff\JJ)	.	.
=44	=44	=44	=44	=44	=44	=44
4.r	.	4dd\	.	8ff\	.	4.r
.	.	.	.	8r	.	.
.	.	16cc\LL	.	(16ee-\LL	.	.
.	.	16b-\JJ	.	16cc\JJ)	.	.
!	!	!	!	!	!	!LO:LB:g=original
=45	=45	=45	=45	=45	=45	=45
8r	.	8b-\	.	8cc\	.	8r
8r	.	8r	.	8r	.	8r
!	!	!	!LO:DY:t=fo.	!	!	!
8E-\	.	8f\	f	8cc\	.	24eee-\LL
.	.	.	.	.	.	24ccc\
.	.	.	.	.	.	24aan\JJ
=46	=46	=46	=46	=46	=46	=46
!LO:TX:a:t=P:problem:mixed beam	!	!	!	!	!	!
8D\L	.	8f\L	.	8dd\L	.	8bb-\L
8F\	.	8f\	.	8b-\	.	8dd\
8FF/J	.	8f\J	.	8an\J	.	8cc\J
=47	=47	=47	=47	=47	=47	=47
.	.	.	.	8qqa-/	.	.
4BB-/	.	8B-/	.	8b-\	.	8b-\
.	.	8r	.	8r	.	8r
!LO:TX:a:t=P:problem:podwójna kreska z obustronną repetycją	!	!	!	!	!	!
8r	.	8r	.	8r	.	8r
!	!	!LO:LB:g=original	!	!	!	!
=48||	=48||	=48||	=48||	=48||	=48||	=48||
8BB-/L	.	8B-/L	.	4d/	.	4b- 4d/
8BB-/	.	8B-/	.	.	.	.
8BB-/J	.	8B-/J	.	16b-\LL	.	16dd\LL
!	!	!	!	!LO:TX:a:t=P:problem:kasownik za nutą ba wysokości cc	!	!
.	.	.	.	16an\JJ	.	16cc\JJ
=49	=49	=49	=49	=49	=49	=49
8BB-/L	.	4.e-\	.	4.a-/	.	4.cc\
8BB-/	.	.	.	.	.	.
8BB-/J	.	.	.	.	.	.
=50	=50	=50	=50	=50	=50	=50
8BB-/L	.	8f\L	.	8a-X/L	.	8dd\L
8BB-/	.	8f\	.	8a-/	.	8dd\
8BB-/J	.	8f\J	.	8a-/J	.	8dd\J
=51	=51	=51	=51	=51	=51	=51
8BB-/L	.	8B-/L	.	16g/LL	.	16ee-\LL
.	.	.	.	16f/JJ	.	16dd\J
8BB-/	.	8B-/	.	8g/	.	8ee-\J
8BB-/J	.	8B-/J	.	8r	.	8r
=52	=52	=52	=52	=52	=52	=52
8BB-/L	.	8B-/L	.	4dd\	.	4ff\
8BB-/	.	8B-/	.	.	.	.
8BB-/J	.	8B-/J	.	(16ff\LL	.	(16aa-\LL
.	.	.	.	16ee-\JJ)	.	16gg\JJ)
=53	=53	=53	=53	=53	=53	=53
8BB-/L	.	8B-/L	.	4ee-\	.	4gg\
8BB-/	.	8B-/	.	.	.	.
8BB-/J	.	8B-/J	.	(16gg\LL	.	(16bb-\LL
.	.	.	.	16ff\JJ)	.	16gg\JJ)
!LO:LB:g=original	!	!	!	!	!	!
=54	=54	=54	=54	=54	=54	=54
8BB-/L	.	8g\L	.	8ee-\L	.	8ee-\L
8BB-/	.	8g\	.	8b-\J	.	8b-\J
8BB-/J	.	8e-\J	.	(16g/LL	.	16g/LL
.	.	.	.	16e-/JJ)	.	16e-/JJ
=55	=55	=55	=55	=55	=55	=55
4BB-/	.	8B-/	.	8b-\	.	8b-\
.	.	8r	.	8r	.	8r
8r	.	8r	.	8r	.	8r
!	!	!	!	!LO:LB:g=original	!	!LO:LB:g=original
=56	=56	=56	=56	=56	=56	=56
*	*	*	*	*	*	*^
4E-\	.	4e-\	.	4g/	.	4ee-/	4e-/
8r	.	8r	.	(16ee-\LL	.	16gg\LL	8ryy
.	.	.	.	16dd\JJ)	.	16ff\JJ	.
*	*	*	*	*	*	*v	*v
=57	=57	=57	=57	=57	=57	=57
8B-\	.	8b-\	.	8dd\	.	8ff\
8r	.	8r	.	8r	.	8r
8r	.	8r	.	8r	.	8r
=58	=58	=58	=58	=58	=58	=58
*	*	*	*	*	*	*^
4BB-/	.	4B-/	.	4dd\	.	4ff/	4b-\
8r	.	8r	.	(16ff\LL	.	(16aa-\LL	8ryy
.	.	.	.	16ee-\JJ)	.	16gg\JJ)	.
*	*	*	*	*	*	*v	*v
=59	=59	=59	=59	=59	=59	=59
8E-\	.	8e-\	.	8ee-\	.	8gg\
8r	.	8r	.	8r	.	8r
8r	.	8r	.	8r	.	8r
=60	=60	=60	=60	=60	=60	=60
8E-\L	.	8e-\L	.	4.gg\	.	4.bb-\
8G\	.	8g\	.	.	.	.
8B-\J	.	8b-\J	.	.	.	.
!	!	!LO:LB:g=original	!	!	!	!
=61	=61	=61	=61	=61	=61	=61
4e-\	.	4ee-\	.	16gg\LL	.	(16bb-\LL
.	.	.	.	(16aa-\	.	16ccc\
.	.	.	.	16gg\)	.	16bb-\
.	.	.	.	(16ff\	.	16aa-\)
8r	.	8r	.	16ee-\	.	16gg\
.	.	.	.	16dd\JJ)	.	16ff\JJ
=62	=62	=62	=62	=62	=62	=62
!	!	!LO:TX:a:t=1.	!	!	!	!
.	.	.	.	16qqdd/	.	.
4.r	.	4.r	.	8ee-\	.	(16ee-\LL
.	.	.	.	.	.	16dd\)
.	.	.	.	8r	.	(16ff\
.	.	.	.	.	.	16ee-\)
.	.	.	.	8r	.	(16gg\
.	.	.	.	.	.	16ff\JJ)
=63	=63	=63	=63	=63	=63	=63
!	!	!	!	!LO:TX:b:t=t	!	!
8BB-/L	.	8B-/L	.	4g/	.	4b-/
8BB-/	.	8B-/	.	.	.	.
8BB-/J	.	8B-/J	.	8f/	.	8a-T/
=64	=64	=64	=64	=64	=64	=64
8E-\L	.	8e-\L	.	8e-/	.	8g/
8E-\	.	8e-\	.	8r	.	8r
8E-\J	.	8f\J	.	8r	.	8r
=65	=65	=65	=65	=65	=65	=65
8G\L	.	8g\L	.	(16e-/LL	.	4.ddd-X\
.	.	.	.	16b-/)	.	.
8G\	.	8b-\	.	(16e-/	.	.
.	.	.	.	16b-/)	.	.
8G\J	.	8ee-\J	.	(16e-/	.	.
.	.	.	.	16b-/JJ)	.	.
=66	=66	=66	=66	=66	=66	=66
8A-\	.	8e-\	.	8cc\	.	16ddd\LL
.	.	.	.	.	.	16ccc\
8r	.	8r	.	8r	.	16bb-\
.	.	.	.	.	.	16aa-\
8r	.	8r	.	8r	.	16gg\
.	.	.	.	.	.	16ff\JJ
!	!	!	!	!	!	!LO:LB:g=original
=67	=67	=67	=67	=67	=67	=67
8En\L	.	8en\L	.	(16g/LL	.	4gg\
.	.	.	.	16cc/)	.	.
8E\	.	8g\	.	(16g/	.	.
.	.	.	.	16cc/)	.	.
8E\J	.	8cc\J	.	(16g/	.	16aa-\LL
.	.	.	.	16cc/JJ)	.	16bb-\JJ
!LO:LB:g=original	!	!	!	!	!	!
=68	=68	=68	=68	=68	=68	=68
8F\	.	8c\	.	8a-/	.	(16bb-\LL
.	.	.	.	.	.	16aa-\
8r	.	8r	.	8r	.	16gg\
.	.	.	.	.	.	16ff\)
8r	.	8r	.	8r	.	16een\
.	.	.	.	.	.	16ff\JJ
!	!	!	!	!LO:LB:g=original	!	!
=69	=69	=69	=69	=69	=69	=69
8A-\L	.	8d\L	.	16d/LL|	.	4.ccc\
.	.	.	.	16f/|	.	.
8A-\	.	8f\	.	16d/|	.	.
.	.	.	.	16f/|	.	.
8A-\J	.	8f\J	.	16d/|	.	.
.	.	.	.	16f/JJ|	.	.
=70	=70	=70	=70	=70	=70	=70
8G\	.	8B-/	.	8e-/	.	(16ccc\LL
.	.	.	.	.	.	16bb-\
8r	.	8r	.	8r	.	16aa-\
.	.	.	.	.	.	16gg\
8r	.	8r	.	8r	.	16ff\)
.	.	.	.	.	.	16ee-\JJ
=71	=71	=71	=71	=71	=71	=71
8D\L	.	8d\L	.	16f/LL|	.	4ff\
.	.	.	.	16b-/|	.	.
8D\	.	8f\	.	16f/|	.	.
.	.	.	.	16b-/|	.	.
8D\J	.	8b-\J	.	16f/|	.	(16gg\LL
.	.	.	.	16b-/JJ|	.	16aa-\JJ)
=72	=72	=72	=72	=72	=72	=72
8E-\	.	8B-/	.	8g/	.	(16aa-\LL
.	.	.	.	.	.	16gg\
8r	.	8r	.	8r	.	16ff\
.	.	.	.	.	.	16ee-\)
8r	.	8r	.	8r	.	16dd\
.	.	.	.	.	.	16ee-\JJ
!	!	!LO:LB:g=original	!	!	!	!
=73	=73	=73	=73	=73	=73	=73
8c\L	.	8e-\	.	(16gg\LL	.	4e-/
.	.	.	.	16ff#X\J)	.	.
8e-\	.	8r	.	8gg\|	.	.
8c\J	.	8r	.	8gg\J|	.	8r
=74	=74	=74	=74	=74	=74	=74
8G\	.	16g\LL	.	8g/	.	16bn\LL
.	.	16an\	.	.	.	16cc\
8r	.	16bn\	.	8r	.	16dd\
.	.	16cc\	.	.	.	16ee-\
8r	.	16dd\	.	8r	.	16ff\
.	.	16ee-\JJ	.	.	.	16gg\JJ
=75	=75	=75	=75	=75	=75	=75
8c\L	.	8cc\	.	(16gg\LL	.	8ee-\
.	.	.	.	16ff#X\J	.	.
8e-\	.	8r	.	8gg\)|	.	8r
8c\J	.	8r	.	8gg\J|	.	8r
!	!	!	!	!	!	!LO:LB:g=original
=76	=76	=76	=76	=76	=76	=76
4G\	.	16g\LL	.	8g/	.	16b-\LL
.	.	16an\	.	.	.	16cc\
.	.	16bn\	.	8r	.	16dd\
.	.	16cc\	.	.	.	16ee-\
8r	.	16dd\	.	8r	.	16ff\
.	.	16ee-\JJ	.	.	.	16gg\JJ
=77	=77	=77	=77	=77	=77	=77
4c\	.	16e-T\LL	.	(16gg\LL	.	8ee-\
.	.	(16d\JJ	.	16ff#X\J	.	.
.	.	8e-\L	.	8gg\)|	.	8r
8c\	.	8e-\J)	.	8gg\J|	.	8r
=78	=78	=78	=78	=78	=78	=78
4F\	.	8f\	.	8aa-\	.	16ccc\LL
.	.	.	.	.	.	16bb-\
!	!	!	!	!	!	!LO:TX:a:t=♭
.	.	8r	.	8r	.	16aa-\
.	.	.	.	.	.	16gg\
8A-\	.	8r	.	8r	.	16ff\
.	.	.	.	.	.	16ee-\JJ
=79	=79	=79	=79	=79	=79	=79
4B-\	.	16dt\LL	.	16ff\LL	.	8dd\
.	.	16c\JJ	.	16ee-\JJ	.	.
.	.	8d\L	.	8ff\L	.	8r
8B-\	.	8d\J	.	8ff\J	.	8r
!LO:LB:g=original	!	!	!	!	!	!
=80	=80	=80	=80	=80	=80	=80
4E-\	.	8e-\	.	8gg\	.	16bb-\LL
.	.	.	.	.	.	16aa-\
.	.	8r	.	8r	.	16gg\
.	.	.	.	.	.	16ff\
8G\	.	8r	.	8r	.	16ee-\
.	.	.	.	.	.	16dd\JJ
!	!	!	!	!LO:LB:g=original	!	!
=81	=81	=81	=81	=81	=81	=81
4A-\	.	4e-\	.	16ccc\LL	.	4cc\
.	.	.	.	16bb-\	.	.
.	.	.	.	16aa-\	.	.
.	.	.	.	16gg\	.	.
8An\	.	8f\	.	16ff\	.	8cc\
.	.	.	.	16ee-\JJ	.	.
!	!	!LO:LB:g=original	!	!	!	!
=82	=82	=82	=82	=82	=82	=82
8B-\L	.	8g\L	.	8dd\L|	.	8b-\L
!	!	!	!	!LO:TX:a:t=P:problem:♮ above	!	!
(16B-\L	.	16b-\L	.	(16b-\L	.	(16b-\L
16An\)	.	16an\	.	16an\)	.	(16an\)
(16B-\	.	16b-\	.	(16b-\	.	16b-\)
16A\JJ)	.	16a\JJ	.	16a\JJ)	.	16a\JJ
=83	=83	=83	=83	=83	=83	=83
8B-\L	.	8b-\L	.	8b-/L	.	8b-/L|
8D\	.	8d\	.	8d/	.	8d/|
8F\J	.	8f\J	.	8f/J	.	8f/J|
=84	=84	=84	=84	=84	=84	=84
4BB-/	.	4B-/	.	4B-/	.	4B-/
!LO:TX:a:t=vi	!	!	!	!	!	!
8r	.	8r	.	8r	.	8r
=85	=85	=85	=85	=85	=85	=85
!LO:TX:a:t=de	!	!	!LO:DY:t=p&colon;	!	!LO:DY:a:t=pia	!
4E-\	.	4e-\	p	4G/	p	4.r
8r	.	(16g\LL	.	(16e-/LL	.	.
.	.	16f\JJ)	.	16d/JJ)	.	.
!	!	!	!	!	!	!LO:LB:g=original
=86	=86	=86	=86	=86	=86	=86
!LO:TX:a:t=re	!	!	!	!	!	!
4.ryy	.	8f\	.	8d/	.	8r
.	.	8r	.	8r	.	8b-\L
.	.	8r	.	8r	.	8b-\J
=87	=87	=87	=87	=87	=87	=87
!LO:TX:a:t=tro	!	!	!	!	!	!
8B-\	.	4f\	.	4d/	.	4.b-\
8r	.	.	.	.	.	.
8r	.	(16a-\LL	.	(16f/LL	.	.
.	.	16g\JJ)	.	16e-/JJ)	.	.
=88	=88	=88	=88	=88	=88	=88
4BB-/	.	8g\	.	8e-/	.	8b-\L
.	.	8r	.	8r	.	8b-\
8r	.	8r	.	8r	.	8b-\J
=89	=89	=89	=89	=89	=89	=89
(8E-\L	.	(8e-\L	.	(8g/L	.	4.b-\
8D\)	.	8d\)	.	8f/	.	.
8F\J|	.	8d\J|	.	8a-/J)|	.	.
=90	=90	=90	=90	=90	=90	=90
8E-\	.	4e-\	.	8g/	.	(16b-\LL
.	.	.	.	.	.	16ee-\
8r	.	.	.	8r	.	16dd\
.	.	.	.	.	.	16cc\J)
8r	.	8r	.	8r	.	8b-\J|
=91	=91	=91	=91	=91	=91	=91
(8E-\L	.	(8e-\L	.	(8g/L	.	8b-\
8D\)	.	8d\)	.	8f/)	.	8r
8F\J|	.	8d\J|	.	8a-/J|	.	8r
=92	=92	=92	=92	=92	=92	=92
4E-\	.	8e-\	.	8g/	.	(16b-\LL
.	.	.	.	.	.	16ee-\
.	.	8r	.	8r	.	16dd\)
.	.	.	.	.	.	16cc\J
8r	.	8r	.	8r	.	8b-\J|
=93	=93	=93	=93	=93	=93	=93
!	!	!LO:TX:a:t=2	!	!	!	!
!LO:N:vis=0	!	!LO:N:vis=0	!	!	!	!
2.r	.	2.r	.	4a-/	.	(16cc\LL
.	.	.	.	.	.	16dd\
.	.	.	.	.	.	16ee-\)
.	.	.	.	.	.	16cc\J
.	.	.	.	8g/	.	8b-\J|
!	!	!	!	!LO:LB:g=original	!	!
=94	=94	=94	=94	=94	=94	=94
.	.	.	.	8qqg/	.	.
.	.	.	.	4f/	.	(16a-/LL
.	.	.	.	.	.	16b-/
.	.	.	.	.	.	16cc/
.	.	.	.	.	.	16a-/J)
.	.	.	.	8e-/	.	8g/J|
!LO:LB:g=original	!	!	!	!	!	!
=95	=95	=95	=95	=95	=95	=95
!	!LO:DY:t=fo.	!	!	!	!	!
4A-\	f	4b-\	.	4dd\	.	(16ff\LL
.	.	.	.	.	.	16gg\)
.	.	.	.	.	.	(16aa-\
.	.	.	.	.	.	16ff\)
8G\	.	8b-\	.	8ee-\	.	(16bb-\
.	.	.	.	.	.	16gg\JJ)
!	!	!LO:LB:g=original	!	!	!	!LO:LB:g=original
=96	=96	=96	=96	=96	=96	=96
4A-\	.	4b-\	.	4dd\	.	(16ff\LL
.	.	.	.	.	.	16gg\)
.	.	.	.	.	.	(16aa-\
.	.	.	.	.	.	16ff\)
8G\	.	8b-\	.	8ee-\	.	(16bb-\
.	.	.	.	.	.	16gg\JJ)
=97	=97	=97	=97	=97	=97	=97
!LO:TX:a:t=P:problem:mixed beam	!	!LO:TX:a:t=P:problem:mixed beam	!	!	!	!
8c\L	.	8a-\L	.	8e-/L	.	16dd\LL
.	.	.	.	.	.	16ee-\JJ
8B-\	.	8b-\	.	8e-/	.	8g/L
8BB-/J	.	8B-/J	.	8d/J	.	8f/J
=98	=98	=98	=98	=98	=98	=98
8E-\L	.	8e-\L	.	4e-/	.	8f/
!	!	!	!	!	!	!LO:N:vis=4
(16E-\L	.	16e-\L	.	.	.	8e-/
16D\)	.	16d\	.	.	.	.
(16E-\	.	16e-\	.	8r	.	8r
16D\JJ)	.	16d\JJ	.	.	.	.
=99	=99	=99	=99	=99	=99	=99
4E-\	.	4e-\	.	8r	.	8r
.	.	.	.	8g/L	.	8b-\L
8r	.	8r	.	8g/J	.	8bn\J
=100	=100	=100	=100	=100	=100	=100
8E-\L	.	8e-\L	.	4.a-/	.	4.cc\
(16E-\L	.	16e-\L	.	.	.	.
16D\)	.	16d\	.	.	.	.
(16E-\	.	16e-\	.	.	.	.
16D\JJ)	.	16d\JJ	.	.	.	.
=101	=101	=101	=101	=101	=101	=101
!	!	!	!	!LO:TX:a:t=P:problem:mixed beam	!	!
4E-\	.	4e-\	.	8a-/L	.	8cc\L
.	.	.	.	8cc/	.	8aa-\
8r	.	8r	.	8aa-\J	.	8ccc\J
=102	=102	=102	=102	=102	=102	=102
8E-\L	.	8e-\L	.	[4.gg\	.	4.bb-\
(16E-\L	.	(16e-\L	.	.	.	.
16D\)	.	16d\)	.	.	.	.
(16E-\	.	(16e-\	.	.	.	.
16D\JJ)	.	16d\JJ)	.	.	.	.
=103	=103	=103	=103	=103	=103	=103
8E-\	.	8e-\	.	8gg\]	.	(16bb-\LL
.	.	.	.	.	.	16gg\
8r	.	8r	.	8r	.	16ff\
.	.	.	.	.	.	16ee-\)
8r	.	8r	.	8r	.	16dd\
.	.	.	.	.	.	16ee-\JJ
=104	=104	=104	=104	=104	=104	=104
4.E-\	.	4.c/	.	[4.f/	.	(16a-/LL
.	.	.	.	.	.	16g/)
.	.	.	.	.	.	(16a-/
.	.	.	.	.	.	16g/J)
.	.	.	.	.	.	8a-/J|
=105	=105	=105	=105	=105	=105	=105
4.D\	.	4.B-/	.	(4.f/]	.	(16ff\LL
.	.	.	.	.	.	16dd\)
.	.	.	.	.	.	(16aa-\
.	.	.	.	.	.	16ff\)
.	.	.	.	.	.	(16dd\
.	.	.	.	.	.	16a-\JJ)
!	!	!	!	!	!	!LO:LB:g=original
=106	=106	=106	=106	=106	=106	=106
8E-\	.	8c/	.	8e-/)	.	8g\L|
8r	.	8r	.	8r	.	(16ee-\L
.	.	.	.	.	.	16dd\)
8r	.	8r	.	8r	.	(16ee-\
.	.	.	.	.	.	16dd\JJ)
!LO:LB:g=original	!	!LO:LB:g=original	!	!	!	!
=107	=107	=107	=107	=107	=107	=107
!	!	!	!	!	!	!LO:TX:a:t=P:problem:mixed beam
8r	.	8r	.	8r	.	8ee-\L
!	!	!LO:TX:a:t=P:problem:mixed beam	!	!	!	!
8AA-/L	.	8G/L	.	8G/L	.	8G/
8E-/J	.	8e-\J	.	8e-/J	.	8e-/J
=108	=108	=108	=108	=108	=108	=108
!	!	!	!	!	!	!LO:TX:a:t=P:problem:mixed beam
8AA-/	.	8A-/	.	8A-/	.	8A-/L
8r	.	8r	.	8r	.	16cc\L
.	.	.	.	.	.	16bn\
8r	.	8r	.	8r	.	16cc\
.	.	.	.	.	.	16b\JJ
!	!	!	!	!LO:LB:g=original	!	!
=109	=109	=109	=109	=109	=109	=109
8r	.	8r	.	8r	.	8cc/L
8A-\L	.	8a-\L	.	8a-/L	.	8a-/
8F\J	.	8f\J	.	8f/J	.	8f/J
=110	=110	=110	=110	=110	=110	=110
8D/	.	8d\	.	8d/	.	8d/L
8r	.	8r	.	8r	.	16B-/L
.	.	.	.	.	.	16d/
8BB-/	.	8B-/	.	8d/	.	16f/
.	.	.	.	.	.	16a-/JJ
=111	=111	=111	=111	=111	=111	=111
!LO:TX:a:t=P:problem:mixed beam	!	!LO:TX:a:t=P:problem:mixed beam	!	!	!	!
8E-\L	.	8e-\L	.	8e-/L	.	24g/LL
.	.	.	.	.	.	24f/
.	.	.	.	.	.	24e-/JJ
8B-\	.	8b-\	.	8e-/	.	4fT/
8BB-/J	.	8B-/J	.	8d/J	.	.
=112	=112	=112	=112	=112	=112	=112
4E-\	.	4e-\	.	4e-/	.	4e-/
8E-\	.	8r	.	(16g/LL	.	8r
.	.	.	.	16b-/JJ)	.	.
=113	=113	=113	=113	=113	=113	=113
8F\L	.	8r	.	(16a-/LL	.	8r
.	.	.	.	16b-/)	.	.
8D\	.	8r	.	(16a-/	.	8r
.	.	.	.	16b-/)	.	.
8BB-\J	.	8f\	.	(16a-/	.	(8dd\
.	.	.	.	16b-/JJ)	.	.
=114	=114	=114	=114	=114	=114	=114
4E-\	.	8g\L	.	(16g/LL	.	8ee-\L
.	.	.	.	16b-/)	.	.
.	.	8e-\J	.	(16g/	.	8b-\J)
.	.	.	.	16b-/)	.	.
8E-\	.	8r	.	(16g/	.	8r
.	.	.	.	16b-/JJ)	.	.
=115	=115	=115	=115	=115	=115	=115
8F\L	.	8r	.	(16a-/LL	.	8r
.	.	.	.	16b-/)	.	.
8D\	.	8r	.	(16a-/	.	8r
.	.	.	.	16b-/)	.	.
8BB-\J	.	8f\	.	(16a-/	.	8dd\
.	.	.	.	16b-/JJ)	.	.
=116	=116	=116	=116	=116	=116	=116
!	!	!	!	!	!	!LO:TX:a:t=P:problem:mixed beam
8E-\	.	8g\	.	8g/	.	8ee-\L
8r	.	8r	.	8r	.	16e-/L
.	.	.	.	.	.	16d/
8r	.	8r	.	8r	.	(16f/
.	.	.	.	.	.	16e-/JJ)
!	!	!	!	!	!	!LO:LB:g=original
=117	=117	=117	=117	=117	=117	=117
4.r	.	4.r	.	(16e-/LL	.	(16g/LL
.	.	.	.	16d/)	.	16f/)
.	.	.	.	(16f/	.	(16a-/
.	.	.	.	16e-/)	.	16g/)
.	.	.	.	(16g/	.	(16b-/
.	.	.	.	16f/JJ)	.	16a-/JJ)
=118	=118	=118	=118	=118	=118	=118
!LO:TX:a:t=P:problem:mixed beam	!	!LO:TX:a:t=P:problem:mixed beam	!	!	!	!
8E-\L	.	8e-\L	.	4g/	.	4b-\
8EE-/J	.	8E-/J	.	.	.	.
8r	.	8r	.	(16cc\LL	.	(16aa-\LL
.	.	.	.	16b-\JJ)	.	16gg\JJ)
!	!	!LO:LB:g=original	!	!	!	!
=119	=119	=119	=119	=119	=119	=119
!LO:TX:a:t=P:problem:mixed beam	!	!LO:TX:a:t=P:problem:mixed beam	!	!	!	!
.	.	.	.	.	.	8qqgg/
8A-\L	.	8a-\L	.	8a-/L	.	8ff\L
8B-\	.	8b-\	.	8g/	.	8ee-\
8BB-/J	.	8B-/J	.	8f/J	.	8dd\J
!LO:LB:g=original	!	!	!	!	!	!
=120	=120	=120	=120	=120	=120	=120
!	!	!	!LO:DY:t=pi	!	!	!
4E-\	.	4e-\	p	4e-/	.	4ee-\
!	!	!	!	!	!LO:DY:a:t=pia.	!
8r	.	(16a-\LL	.	(16cc\LL	p	8r
.	.	16g\JJ)	.	16b-\JJ)	.	.
!	!	!	!	!LO:LB:g=original	!	!
=121	=121	=121	=121	=121	=121	=121
4.r	.	8g\	.	8b-\	.	4.r
.	.	8r	.	8r	.	.
.	.	16f\LL	.	(16a-/LL	.	.
.	.	16e-\JJ	.	[>16g/JJ)	.	.
=122	=122	=122	=122	=122	=122	=122
8r	.	8e-\	.	8g/]	.	8r
!	!	!	!	!	!LO:DY:a:t=for.	!
8r	.	8r	.	8r	f	8r
8A-\	.	8B-/	.	8f/	.	16dd\LL
.	.	.	.	.	.	16b-\JJ
=123	=123	=123	=123	=123	=123	=123
!LO:TX:a:t=P:problem:mixed beam	!	!	!LO:DY:t=fo&colon;	!LO:N:vis=16	!	!LO:TX:a:t=P:problem:mixed beam
8G\L	.	8B-/L	f	8g/L	.	8ee-\L
!	!	!	!	!LO:TX:a:t=razi	!	!
!	!	!	!	!LO:N:vis=16	!	!
8B-\	.	8B-/	.	8e-/	.	8g/
!	!	!	!	!LO:N:vis=16	!	!
8BB-/J	.	8B-/J	.	8d/J	.	8f/J
=124	=124	=124	=124	=124	=124	=124
.	.	.	.	.	.	8qqf/
4E-\	.	4e-\	.	4d/	.	4e-/
!	!	!	!LO:DY:t=p&colon;	!	!	!
8r	.	16a-\LL	p	16cc\LL	.	8r
.	.	16g\JJ	.	16b-\JJ	.	.
=125	=125	=125	=125	=125	=125	=125
!LO:TX:a:t=1	!	!	!	!	!	!
4.r	.	8g\	.	8b-\	.	4.r
.	.	8r	.	8r	.	.
.	.	16dd\LL	.	(16aa-\LL	.	.
.	.	16ee-\JJ	.	16gg\JJ)	.	.
=126	=126	=126	=126	=126	=126	=126
8r	.	8ee-\	.	8gg\	.	8r
8r	.	8r	.	8r	.	8r
!	!	!	!	!	!LO:DY:a:t=for	!
8A-\	.	8B-/	.	8f/	f	16bb-\LL
.	.	.	.	.	.	16dd\JJ
=127	=127	=127	=127	=127	=127	=127
!LO:TX:a:t=P:problem:mixed beam	!	!	!	!	!	!LO:TX:a:t=P:problem:mixed beam
.	.	.	.	.	.	8qqdd/
8G\L	.	8B-/L	.	8g/L	.	8ee-\L
8B-\	.	8B-/	.	8e-/	.	8g/
8BB-/J	.	8B-/J	.	8d/J	.	8f/J
=128	=128	=128	=128	=128	=128	=128
.	.	.	.	8qqd/	.	8qqf/
4E-\	.	4e-\	.	4e-/	.	4e-/
8r	.	8r	.	8r	.	8r
==;;	==	==;;	==	==;;	==	==;;
*-	*-	*-	*-	*-	*-	*-
!!!system-decoration: [(s1,s2,s3,s4)]
!!!RDF**kern: > = above
!!!RDF**kern: < = below
!!!AIN: 1 empty 1 viola 2 violn
!!!ENC: Zofia Niedbalska
!!!END: 2020-11-27
!!!ENC: Berenika Jozajtis
!!!END: 2020-05-27
!!!RDF**kern: | = vertical stroke
